!!!COM: Robert Franz
!!!CNT: Deutscher
!!!TXO: Deutsche 
!!!OTL: Auf dem Meere.
!!!OPS: Op. 36
!!!ONM: No. 1
!!!ONB: Original key: E Major
!!!LYR: H. Heine
!!!ENC: Brian Bice
!!!YOR: Vocal Album, G. Schirmer, Inc., 1907
!!!ODT: 1862
!!NB: Vocal melody and text only encoded.
**kern	**silbe
*clefG2	*
*k[b-e-a-d-g-]	*
*M4/4	*
=0	=0
2.r	.
{(8f	{Das
8g-)	|
=1	=1
4a-	Meer
4f	hat
(4d-	sei-
8e-)	|
8f	-ne
=2	=2
(4g-	Per-
4c)	|
4d-}	-len,}
{(8e-	{der
8f)	|
=3	=3
4f	Him-
4d-	-mel
4B-	hat
8c	sei-
8d-	-ne
=4	=4
4e-	Ster-
4An	|
4B-}	-ne}
{12d-	{a-
12f	-ber
12b-	mein
=5	=5
(4a-	Herz,
8gn)	|
8f	mein
(4en	Herz?
8g-)	|
8r	.
=6	=6
4r	.
4c	mein
4f	Herz
4gn	hat
=7	=7
4a-	sei-
8cc	|
8b-	-ne
(4a-	Lei-
4b-)	|
=8	=8
4.a-}	-be.}
8r	.
2r	.
=9	=9
{4dd-	{Gross
8a-	ist
8a-	das
4cc-	Meer
8b-	und
8a-	der
=10	=10
4b-	Him-
4g-}	-mel,}
4r	.
{4b-	{doch
=11	=11
(4ee-	gro2-
8dd-)	|
8cc	-sser
4b-	ist
4cc	mein
=12	=12
2.cc}	Herz,}
{(8f	{und
8g-)	|
=13	=13
4a-	scho2-
8g-	-ner
8f	als
4b-	Per-
8a-	-len
8a-	und
=14	=14
(4gn	Ster-
4b-)	|
4a-}	-ne}
4r	.
=15	=15
{(8ff	{leuch-
8ee-)	|
8dd-	-tet
8cc	und
(8ee-	strahlt
8dd-)	|
8cc	mei-
8b-	-ne
=16	=16
(4a-	Lie-
4ee-)	|
4.dd-	-be,
8r	.
=17	=17
4r	.
8a-	mei-
8g-	-ne
(4f	Lei-
4e-)	|
=18	=18
4.d-}	-be.}
8r	.
4r	.
*-	*-
